dist/assets/img/features/6.svg

<svg width="40" height="40" viewBox="0 0 40 40" fill="none" xmlns="http://www.w3.org/2000/svg">
<path d="M1 16.6667C1 23.5416 1.91238 27.2524 4.46393 29.3787C5.75446 30.4541 7.55523 31.2031 10.1088 31.676C12.665 32.1494 15.9012 32.3334 20 32.3334C24.0988 32.3334 27.335 32.1494 29.8912 31.676C32.4448 31.2031 34.2455 30.4541 35.5361 29.3787C38.0876 27.2524 39 23.5416 39 16.6667C39 9.79182 38.0876 6.08101 35.5361 3.95472C34.2455 2.87928 32.4448 2.13034 29.8912 1.65741C27.335 1.18401 24.0988 1.00004 20 1.00004C15.9012 1.00004 12.665 1.18401 10.1088 1.65741C7.55523 2.13034 5.75446 2.87928 4.46393 3.95472C1.91238 6.08101 1 9.79182 1 16.6667Z" stroke="#16171A" stroke-width="2" stroke-linecap="round" stroke-linejoin="round"/>
<path d="M20.0002 33.3334V38.3334H13.3335H26.6668" stroke="#16171A" stroke-width="2" stroke-linecap="round" stroke-linejoin="round"/>
</svg>

<svg width="40" height="40" fill="none" xmlns="http://www.w3.org/2000/svg"><path d="M1 16.667c0 6.875.912 10.585 3.464 12.712 1.29 1.075 3.091 1.824 5.645 2.297 2.556.473 5.792.657 9.891.657s7.335-.184 9.891-.657c2.554-.473 4.355-1.222 5.645-2.297C38.088 27.252 39 23.542 39 16.667S38.088 6.08 35.536 3.955c-1.29-1.076-3.091-1.825-5.645-2.298C27.335 1.184 24.1 1 20 1s-7.335.184-9.891.657C7.555 2.13 5.754 2.88 4.464 3.955 1.912 6.08 1 9.792 1 16.667zm19 16.666v5h-6.666 13.333" stroke="#16171A" stroke-width="2" stroke-linecap="round" stroke-linejoin="round"/></svg>
